X: 1097
T: Hüseynî Aranağme (Raksaksağı)
C: ?
O: Turkey
F: http://compmusic.upf.edu/node/140
N: huseyni--aranagme--raksaksagi--1--
N: makam= huseyni
N: form= aranagme
N: usul= raksaksagi = 9/8
M: 9/8
L: 1/16
K: C _2/4B ^3/4f  
Q: 1/4=180
%%MIDI tuningsystem comma53
e2=f2 a2g2 f2e2 d2c2 B2 | A2 B2c4d2 e8  | \
w:  ARANAĞME  |   | 
e2=f2 a2g2 f2e2 d2c2 B2 | 
w:   | 
A2 B2c2 B2d2 A8  | e2=f2 a2g2 f2e2 d2c2 B2 | \
w:   |  ARANAĞME  | 
A2 B2c4d2 e8  | e2=f2 a2g2 f2e2 d2c2 B2 | 
w:   |   | 
A2 B2c2 B2d2 A8  | |


